X: 1
T: Blue Monday
C: Linda Henry & Bob Snope (1994)
R: waltz
Z: 2011 John Chambers <jc:trillian.mit.edu>
M: 3/4
L: 1/8
K: D
|:\
"D"DE FA dA | "Em"G3 A B2 |\
"A7"AB ce ae | f3 g a2 |\
"G"g3 f e2 | "D"fg ag f2 |
[1 "G"ef ed cd | "A7"ea ed cA :|\
[2 "A7"ef gA cA | "D"d4 d2 \
[|\
"G"GF EF GA | "A7"c3 B A2 |\
"D"de fa fd |
"Bm"A3 G F2 |\
"G"GF EF GA | "A7"c3 B A2 |\
"D"F2 D2 "G"B2 | "D"A4 F2 |]|\
"G"GF EF GA | "A7"c3 B A2 |
"D"dA Bc de | "Bm"f3 a f2 |\
"Em"ga ba gf | "G"ef ed cB |\
"A7"AB cA Bc | "D"Hd3 "//"y AF"D.C."A |]
